static/assets/template/assets/img/icons/essential/detailed/Notification.svg

<svg height="148" viewBox="0 0 122 148" width="122" xmlns="http://www.w3.org/2000/svg"><g fill="none" fill-rule="evenodd" transform="translate(1 1)"><circle cx="54.1" cy="131.8" fill-rule="nonzero" r="12.8"/><circle cx="54.1" cy="131.8" fill-rule="nonzero" r="12.8"/><path d="m65.7 137.3c-2 4.4-6.5 7.4-11.6 7.4-5.3 0-9.8-3.2-11.8-7.7" stroke-linecap="round" stroke-linejoin="round" stroke-width="3.5041"/><path d="m107.3 121.5c-.1 5-4.4 9-9.4 9h-87.9c-2.5 0-4.8-1-6.5-2.7-1.8-1.8-2.9-4.3-2.7-7.1.3-4.9 4.5-8.6 9.4-8.6 2.2 0 4-1.8 4-4v-43.4c0-22.1 17.8-40.2 39.8-40.2 11 0 20.9 4.5 28.1 11.7s11.7 17.2 11.7 28.2v43.8c0 2.2 1.8 4 4 4h.2c2.5 0 4.8 1.1 6.5 2.7 1.9 1.6 2.9 4 2.8 6.6z" fill-rule="nonzero"/><circle cx="54.1" cy="10.3" fill-rule="nonzero" r="9.5"/><path d="m107.3 122c-.1 4.7-4.1 8.4-8.9 8.4h-82.9c-2.4 0-4.6-1-6.1-2.5-1.7-1.7-2.7-4.1-2.5-6.7.3-4.6 4.2-8.1 8.8-8.1 1.1 0 2-.4 2.7-1.1s1.1-1.6 1.1-2.7v-40.7c0-20.7 16.8-37.8 37.6-37.8 2.1 0 4.1.2 6.1.5 7.9 1.3 15 5.1 20.4 10.5 1 1 1.9 2 2.7 3 5.2 6.4 8.3 14.5 8.3 23.4v41.1c0 2.1 1.7 3.8 3.8 3.8h.2c2.4 0 4.6 1 6.1 2.5 1.7 1.7 2.7 4 2.6 6.4z" fill-rule="nonzero"/><path d="m94.7 68.3v5.8c-2 .5-4.1.7-6.3.7-16 0-29-13-29-29 0-5.3 1.4-10.2 3.9-14.4 7.9 1.3 15 5.1 20.4 10.5 1 1 1.9 2 2.7 3 5.2 6.4 8.3 14.5 8.3 23.4z" fill-rule="nonzero"/><path d="m107.3 122c-.1 4.7-4.1 8.4-8.9 8.4l-30.3.3c.7-1.1 2.9-4.8 3.2-6.4 2.1-10.3-10.7-11.7-18.9-11.8 27.4-4.9 38.5-43.4 34-67.8 5.2 6.4 8.3 14.5 8.3 23.4v41.1c0 2.1 1.7 3.8 3.8 3.8h.2c2.4 0 4.6 1 6.1 2.5 1.6 1.8 2.6 4.1 2.5 6.5z" fill-rule="nonzero"/><ellipse cx="55.7" cy="13.1" fill-rule="nonzero" rx="7.9" ry="6.7"/><g stroke-linecap="round" stroke-linejoin="round" stroke-width="3.5041"><path d="m76.9 130.5h-66.8c-2.5 0-4.8-1-6.5-2.7-1.8-1.8-2.9-4.3-2.7-7.1.3-4.9 4.5-8.6 9.4-8.6 2.2 0 4-1.8 4-4v-43.4c0-8.2 2.5-15.9 6.7-22.2"/><path d="m33.4 30.3c6-3.7 13.1-5.9 20.7-5.9 11 0 20.9 4.5 28.1 11.7s11.7 17.2 11.7 28.2v43.8c0 2.2 1.8 4 4 4h.2c2.5 0 4.8 1.1 6.5 2.7 1.7 1.7 2.8 4.1 2.7 6.7-.1 5-4.4 9-9.4 9"/><path d="m26.2 36.1c.1-.1.2-.2.3-.3"/><path d="m61.6 16.1c-1.7 2.3-4.5 3.7-7.5 3.7-5 0-9.2-3.9-9.5-8.9"/><path d="m46.4 4.8c1.7-2.4 4.5-4 7.7-4 5.1 0 9.3 4.1 9.5 9.2"/><path d="m50.9 112.1h47.1"/><path d="m33.1 112.1h9.1"/><path d="m24.9 112.1h.7"/></g><g transform="translate(66 11)"><path d="m48.2 11.8c2.7 4.1 4.3 9 4.3 14.3 0 14.4-11.7 26.1-26.1 26.1s-26.1-11.7-26.1-26.1 11.7-26.1 26.1-26.1c9.2.1 17.2 4.7 21.8 11.8" fill-rule="nonzero"/><g stroke-linecap="round" stroke-linejoin="round" stroke-width="3.5041"><path d="m51.2 17.9c.1.2.1.5.2.7.7 2.4 1.1 4.9 1.1 7.5 0 5.8-1.9 11.2-5.1 15.5"/><path d="m30.3 51.9c-1.3.2-2.5.3-3.8.3-14.4 0-26.1-11.7-26.1-26.1s11.7-26.1 26.1-26.1c8.1 0 15.3 3.7 20.1 9.4"/><path d="m41.3 47.5c-.4.3-.9.6-1.3.9"/></g><g fill-rule="nonzero" transform="translate(14 9)"><path d="m10.8 31.4c-1 0-1.8-.8-1.8-1.8v-17.7l-4 2.7c-.3.2-.6.3-1 .3-.3 0-.6-.1-.8-.2-.6-.3-.9-.9-.9-1.6v-5.1c0-.6.3-1.1.8-1.4l6.7-4.6c.3-.2.6-.3 1-.3h5.4c1 0 1.8.8 1.8 1.8v26.1c0 1-.8 1.8-1.8 1.8z"/><path d="m16.3 3.5v26.1h-5.5v-20.8h-.3l-6.4 4.4v-5.1l6.7-4.6zm0-3.5h-5.4c-.7 0-1.4.2-2 .6l-6.7 4.6c-.9.7-1.5 1.7-1.5 2.9v5.1c0 1.3.7 2.5 1.9 3.1.5.3 1.1.4 1.6.4.7 0 1.4-.2 2-.6l1.2-.8v14.3c0 1.9 1.6 3.5 3.5 3.5h5.5c1.9 0 3.5-1.6 3.5-3.5v-26.1c-.1-1.9-1.7-3.5-3.6-3.5z"/></g></g></g></svg>

<?xml version="1.0" encoding="UTF-8"?>
<svg width="122px" height="148px" viewBox="0 0 122 148" version="1.1" xmlns="http://www.w3.org/2000/svg" xmlns:xlink="http://www.w3.org/1999/xlink">
    <!-- Generator: Sketch 51.2 (57519) - http://www.bohemiancoding.com/sketch -->
    <title>Notification</title>
    <desc>Created with Sketch.</desc>
    <defs></defs>
    <g id="Page-1" stroke="none" stroke-width="1" fill="none" fill-rule="evenodd">
        <g id="Notification" transform="translate(1.000000, 1.000000)">
            <circle id="Oval" class="fill-neutral" fill-rule="nonzero" cx="54.1" cy="131.8" r="12.8"></circle>
            <circle id="Oval" class="fill-primary-300" fill-rule="nonzero" cx="54.1" cy="131.8" r="12.8"></circle>
            <path d="M65.7,137.3 C63.7,141.7 59.2,144.7 54.1,144.7 C48.8,144.7 44.3,141.5 42.3,137" id="Shape" class="stroke-primary" stroke-width="3.5041" stroke-linecap="round" stroke-linejoin="round"></path>
            <path d="M107.3,121.5 C107.2,126.5 102.9,130.5 97.9,130.5 L10,130.5 C7.5,130.5 5.2,129.5 3.5,127.8 C1.7,126 0.6,123.5 0.8,120.7 C1.1,115.8 5.3,112.1 10.2,112.1 C12.4,112.1 14.2,110.3 14.2,108.1 L14.2,64.7 C14.2,42.6 32,24.5 54,24.5 C65,24.5 74.9,29 82.1,36.2 C89.3,43.4 93.8,53.4 93.8,64.4 L93.8,108.2 C93.8,110.4 95.6,112.2 97.8,112.2 L98,112.2 C100.5,112.2 102.8,113.3 104.5,114.9 C106.4,116.5 107.4,118.9 107.3,121.5 Z" id="Shape" class="fill-neutral" fill-rule="nonzero"></path>
            <circle id="Oval" class="fill-neutral" fill-rule="nonzero" cx="54.1" cy="10.3" r="9.5"></circle>
            <path d="M107.3,122 C107.2,126.7 103.2,130.4 98.4,130.4 L15.5,130.4 C13.1,130.4 10.9,129.4 9.4,127.9 C7.7,126.2 6.7,123.8 6.9,121.2 C7.2,116.6 11.1,113.1 15.7,113.1 C16.8,113.1 17.7,112.7 18.4,112 C19.1,111.3 19.5,110.4 19.5,109.3 L19.5,68.6 C19.5,47.9 36.3,30.8 57.1,30.8 C59.2,30.8 61.2,31 63.2,31.3 C71.1,32.6 78.2,36.4 83.6,41.8 C84.6,42.8 85.5,43.8 86.3,44.8 C91.5,51.2 94.6,59.3 94.6,68.2 L94.6,109.3 C94.6,111.4 96.3,113.1 98.4,113.1 L98.6,113.1 C101,113.1 103.2,114.1 104.7,115.6 C106.4,117.3 107.4,119.6 107.3,122 Z" id="Shape" class="fill-primary-100" fill-rule="nonzero"></path>
            <path d="M94.7,68.3 L94.7,74.1 C92.7,74.6 90.6,74.8 88.4,74.8 C72.4,74.8 59.4,61.8 59.4,45.8 C59.4,40.5 60.8,35.6 63.3,31.4 C71.2,32.7 78.3,36.5 83.7,41.9 C84.7,42.9 85.6,43.9 86.4,44.9 C91.6,51.3 94.7,59.4 94.7,68.3 Z" id="Shape" class="fill-primary-200" fill-rule="nonzero"></path>
            <path d="M107.3,122 C107.2,126.7 103.2,130.4 98.4,130.4 L68.1,130.7 C68.8,129.6 71,125.9 71.3,124.3 C73.4,114 60.6,112.6 52.4,112.5 C79.8,107.6 90.9,69.1 86.4,44.7 C91.6,51.1 94.7,59.2 94.7,68.1 L94.7,109.2 C94.7,111.3 96.4,113 98.5,113 L98.7,113 C101.1,113 103.3,114 104.8,115.5 C106.4,117.3 107.4,119.6 107.3,122 Z" id="Shape" class="fill-primary-200" fill-rule="nonzero"></path>
            <ellipse id="Oval" class="fill-primary-100" fill-rule="nonzero" cx="55.7" cy="13.1" rx="7.9" ry="6.7"></ellipse>
            <path d="M76.9,130.5 L10.1,130.5 C7.6,130.5 5.3,129.5 3.6,127.8 C1.8,126 0.7,123.5 0.9,120.7 C1.2,115.8 5.4,112.1 10.3,112.1 C12.5,112.1 14.3,110.3 14.3,108.1 L14.3,64.7 C14.3,56.5 16.8,48.8 21,42.5" id="Shape" class="stroke-primary" stroke-width="3.5041" stroke-linecap="round" stroke-linejoin="round"></path>
            <path d="M33.4,30.3 C39.4,26.6 46.5,24.4 54.1,24.4 C65.1,24.4 75,28.9 82.2,36.1 C89.4,43.3 93.9,53.3 93.9,64.3 L93.9,108.1 C93.9,110.3 95.7,112.1 97.9,112.1 L98.1,112.1 C100.6,112.1 102.9,113.2 104.6,114.8 C106.3,116.5 107.4,118.9 107.3,121.5 C107.2,126.5 102.9,130.5 97.9,130.5" id="Shape" class="stroke-primary" stroke-width="3.5041" stroke-linecap="round" stroke-linejoin="round"></path>
            <path d="M26.2,36.1 C26.3,36 26.4,35.9 26.5,35.8" id="Shape" class="stroke-primary" stroke-width="3.5041" stroke-linecap="round" stroke-linejoin="round"></path>
            <path d="M61.6,16.1 C59.9,18.4 57.1,19.8 54.1,19.8 C49.1,19.8 44.9,15.9 44.6,10.9" id="Shape" class="stroke-primary" stroke-width="3.5041" stroke-linecap="round" stroke-linejoin="round"></path>
            <path d="M46.4,4.8 C48.1,2.4 50.9,0.8 54.1,0.8 C59.2,0.8 63.4,4.9 63.6,10" id="Shape" class="stroke-primary" stroke-width="3.5041" stroke-linecap="round" stroke-linejoin="round"></path>
            <path d="M50.9,112.1 L98,112.1" id="Shape" class="stroke-primary" stroke-width="3.5041" stroke-linecap="round" stroke-linejoin="round"></path>
            <path d="M33.1,112.1 L42.2,112.1" id="Shape" class="stroke-primary" stroke-width="3.5041" stroke-linecap="round" stroke-linejoin="round"></path>
            <path d="M24.9,112.1 L25.6,112.1" id="Shape" class="stroke-primary" stroke-width="3.5041" stroke-linecap="round" stroke-linejoin="round"></path>
            <g id="Group" transform="translate(66.000000, 11.000000)">
                <path d="M48.2,11.8 C50.9,15.9 52.5,20.8 52.5,26.1 C52.5,40.5 40.8,52.2 26.4,52.2 C12,52.2 0.3,40.5 0.3,26.1 C0.3,11.7 12,0 26.4,0 C35.6,0.1 43.6,4.7 48.2,11.8" id="Shape" class="fill-primary-500" fill-rule="nonzero"></path>
                <path d="M51.2,17.9 C51.3,18.1 51.3,18.4 51.4,18.6 C52.1,21 52.5,23.5 52.5,26.1 C52.5,31.9 50.6,37.3 47.4,41.6" id="Shape" class="stroke-primary" stroke-width="3.5041" stroke-linecap="round" stroke-linejoin="round"></path>
                <path d="M30.3,51.9 C29,52.1 27.8,52.2 26.5,52.2 C12.1,52.2 0.4,40.5 0.4,26.1 C0.4,11.7 12.1,-9.09494702e-13 26.5,-9.09494702e-13 C34.6,-9.09494702e-13 41.8,3.7 46.6,9.4" id="Shape" class="stroke-primary" stroke-width="3.5041" stroke-linecap="round" stroke-linejoin="round"></path>
                <path d="M41.3,47.5 C40.9,47.8 40.4,48.1 40,48.4" id="Shape" class="stroke-primary" stroke-width="3.5041" stroke-linecap="round" stroke-linejoin="round"></path>
                <g transform="translate(14.000000, 9.000000)" fill-rule="nonzero" id="Shape">
                    <path d="M10.8,31.4 C9.8,31.4 9,30.6 9,29.6 L9,11.9 L5,14.6 C4.7,14.8 4.4,14.9 4,14.9 C3.7,14.9 3.4,14.8 3.2,14.7 C2.6,14.4 2.3,13.8 2.3,13.1 L2.3,8 C2.3,7.4 2.6,6.9 3.1,6.6 L9.8,2 C10.1,1.8 10.4,1.7 10.8,1.7 L16.2,1.7 C17.2,1.7 18,2.5 18,3.5 L18,29.6 C18,30.6 17.2,31.4 16.2,31.4 L10.8,31.4 Z" class="fill-neutral"></path>
                    <path d="M16.3,3.5 L16.3,29.6 L10.8,29.6 L10.8,8.8 L10.5,8.8 L4.1,13.2 L4.1,8.1 L10.8,3.5 L16.3,3.5 Z M16.3,0 L10.9,0 C10.2,0 9.5,0.2 8.9,0.6 L2.2,5.2 C1.3,5.9 0.7,6.9 0.7,8.1 L0.7,13.2 C0.7,14.5 1.4,15.7 2.6,16.3 C3.1,16.6 3.7,16.7 4.2,16.7 C4.9,16.7 5.6,16.5 6.2,16.1 L7.4,15.3 L7.4,29.6 C7.4,31.5 9,33.1 10.9,33.1 L16.4,33.1 C18.3,33.1 19.9,31.5 19.9,29.6 L19.9,3.5 C19.8,1.6 18.2,0 16.3,0 Z" class="fill-primary"></path>
                </g>
            </g>
        </g>
    </g>
</svg>
